X:1
T:An Dro
R:an dro
O:Bretagne
Z:id:hn-andro-1
M:2/4
L:1/16
Q:1/4=100
K:Ador
A2BA G2E2 | AAGF E2AA | GABA G2E2 | AAGF E3A :|
|: A2B2 c3c | BABc B3A | A2B2 c2A2 | A2G2 A3E :|

